static/logos/monday-wordmark-color.svg

<svg width="100" height="19" viewBox="0 0 100 19" fill="none" xmlns="http://www.w3.org/2000/svg">
<g clip-path="url(#clip0_1_1957)">
<path d="M2.06885 14.3554C1.70121 14.3562 1.33994 14.2594 1.02195 14.0749C0.703964 13.8904 0.440658 13.6247 0.258932 13.3052C0.0799878 12.9878 -0.00925639 12.6278 0.00075918 12.2636C0.0107748 11.8994 0.119673 11.5448 0.315788 11.2378L4.04303 5.38477C4.2338 5.07019 4.50464 4.8119 4.82788 4.63626C5.15115 4.46062 5.51524 4.37393 5.88295 4.38504C6.25041 4.39385 6.60891 4.50013 6.9218 4.69299C7.23468 4.88585 7.4907 5.15838 7.66365 5.48269C8.01111 6.1397 7.96769 6.93015 7.55154 7.54688L3.82667 13.3999C3.63776 13.6943 3.37763 13.9362 3.07034 14.1032C2.76306 14.2702 2.41859 14.357 2.06885 14.3554Z" fill="#F62B54"/>
<path d="M8.46352 14.3554C7.71176 14.3554 7.02001 13.9535 6.65676 13.3075C6.47822 12.991 6.38918 12.6319 6.3992 12.2687C6.4092 11.9055 6.5179 11.5519 6.71362 11.2457L10.4338 5.40609C10.6217 5.0871 10.8916 4.82421 11.2154 4.64468C11.5392 4.46513 11.9051 4.37549 12.2752 4.38504C13.0333 4.40163 13.7204 4.82569 14.0678 5.48902C14.4129 6.15233 14.3623 6.94752 13.9336 7.56267L10.2142 13.4023C10.0259 13.6954 9.76683 13.9363 9.46084 14.1029C9.15488 14.2695 8.81189 14.3563 8.46352 14.3554Z" fill="#FFCC00"/>
<path d="M14.7158 14.4044C15.7756 14.4044 16.6347 13.5633 16.6347 12.5258C16.6347 11.4882 15.7756 10.6471 14.7158 10.6471C13.656 10.6471 12.7969 11.4882 12.7969 12.5258C12.7969 13.5633 13.656 14.4044 14.7158 14.4044Z" fill="#00CA72"/>
<path d="M98.078 10.7561C98.6575 10.7561 99.0043 11.1683 99.0043 11.8435V14.1572H99.7914V11.7906C99.7914 10.6424 99.2506 9.97671 98.2335 9.97671C97.8355 9.97671 97.2036 10.0857 96.8271 10.8177C96.7395 10.6018 96.5951 10.4136 96.4092 10.2732C96.2233 10.1328 96.003 10.0453 95.7714 10.0201C95.6254 9.99344 95.4769 9.98468 95.329 9.99408C95.0053 10.0201 94.4288 10.2215 94.2132 10.6779V10.0644H93.4252V14.1572H94.2132V11.9485C94.2132 11.0894 94.7754 10.7561 95.3384 10.7561C95.866 10.7561 96.2126 11.1596 96.2126 11.8348V14.1572H96.9961V11.9485C96.9961 11.2647 97.4066 10.7482 98.078 10.7561ZM90.5327 13.4734C90.8927 13.4813 91.2402 13.3375 91.4921 13.0769C91.7446 12.8164 91.879 12.4618 91.8656 12.0978C91.8656 11.2733 91.2592 10.7561 90.5327 10.7561C89.8053 10.7561 89.1996 11.2733 89.1996 12.0978C89.1855 12.461 89.3196 12.8148 89.5707 13.0746C89.822 13.3352 90.1677 13.4797 90.5263 13.4734H90.5327ZM90.5327 14.2409C89.3812 14.2409 88.4203 13.3904 88.4203 12.093C88.4203 10.7956 89.3812 9.97196 90.5327 9.97196C91.684 9.97196 92.6528 10.7956 92.6528 12.093C92.6528 13.3904 91.6784 14.2449 90.5271 14.2449L90.5327 14.2409ZM84.3654 12.093L84.3575 12.0978C84.3575 10.8003 85.3436 9.97671 86.503 9.97196C86.7942 9.96632 87.0833 10.0219 87.3517 10.1351C87.6201 10.2482 87.8617 10.4165 88.0609 10.629L87.4639 11.1375C87.3372 11.013 87.187 10.9148 87.022 10.8487C86.857 10.7826 86.6805 10.7497 86.503 10.7522C85.7765 10.7522 85.1446 11.2694 85.1446 12.093C85.1446 12.6497 85.4756 13.1512 85.9833 13.3644C86.491 13.5776 87.0754 13.4591 87.4639 13.0659L88.0696 13.5744C87.8696 13.7891 87.6269 13.9593 87.357 14.0741C87.0872 14.1889 86.7961 14.2458 86.503 14.2409C85.3523 14.2409 84.3654 13.3904 84.3654 12.093ZM81.8438 13.3715C81.8429 13.2999 81.8564 13.2289 81.8829 13.1625C81.9096 13.0961 81.9489 13.0355 81.9989 12.9844C82.0489 12.9332 82.1085 12.8923 82.1743 12.8642C82.2402 12.836 82.3109 12.8211 82.3825 12.8203C82.454 12.8211 82.5248 12.836 82.5904 12.8642C82.6562 12.8923 82.7158 12.9332 82.7658 12.9844C82.8158 13.0355 82.8553 13.0961 82.8818 13.1625C82.9085 13.2289 82.9218 13.2999 82.9209 13.3715C82.9139 13.5101 82.8543 13.6407 82.7543 13.7369C82.654 13.833 82.5211 13.8873 82.3825 13.8887C82.2436 13.8873 82.1107 13.833 82.0107 13.7369C81.9105 13.6407 81.8508 13.5101 81.8438 13.3715Z" fill="#333333"/>
<path fill-rule="evenodd" clip-rule="evenodd" d="M83.9954 4.8612H81.1913L79.2257 9.9285L77.2706 4.8612H74.4665L77.8755 12.8684L75.7552 18.1624H78.5387L83.9954 4.8612ZM66.9417 9.31494C66.9417 10.5942 68.0599 11.436 69.1582 11.436C70.2377 11.436 71.2984 10.6526 71.2984 9.31415C71.2984 7.97566 70.2377 7.19152 69.1582 7.19152C68.0599 7.19152 66.9417 8.0341 66.9417 9.31415V9.31494ZM71.2984 13.786V12.7729C70.7298 13.6336 69.4031 13.959 68.7223 13.959C66.4687 13.959 64.2142 12.1822 64.2142 9.31415C64.2142 6.44686 66.4678 4.67011 68.7223 4.67011C69.2902 4.67011 70.6167 4.85962 71.2984 5.85462V4.86436H73.912V13.7876L71.2984 13.7868V13.786ZM63.4704 13.786H60.8565V12.6774C60.4197 13.4986 59.3607 13.9771 58.2616 13.9771C55.9881 13.9771 53.98 12.1617 53.98 9.35047C53.98 6.48635 55.9881 4.66853 58.2616 4.66853C59.3593 4.66853 60.4214 5.12654 60.8565 5.94857V0H63.4704V13.786ZM60.7996 9.2944C60.7996 7.95671 59.8338 7.17256 58.7543 7.17256C57.6362 7.17256 56.7075 8.01357 56.7075 9.2944C56.7075 10.6163 57.6362 11.4534 58.7535 11.4534C59.8537 11.4549 60.7996 10.5753 60.7996 9.2944ZM47.5174 9.06383C47.5174 7.70718 48.2187 7.24838 49.1464 7.24838C50.0364 7.24838 50.6808 7.84062 50.6808 9.02513V13.7845H53.3135V8.45263C53.3135 5.91147 52.0627 4.66853 50.0736 4.66853C49.0319 4.66853 47.9904 5.26077 47.5165 6.15942V4.8612H44.8853V13.7845H47.5174V9.06383ZM39.5394 13.9377C37.0392 13.9377 34.9537 12.1033 34.9537 9.29361C34.9537 6.48239 37.0368 4.66615 39.5394 4.66615C42.0417 4.66615 44.1432 6.48239 44.1432 9.29361C44.1432 12.1049 42.0394 13.9385 39.5394 13.9385V13.9377ZM39.5394 11.3397C40.637 11.3397 41.5475 10.5358 41.5475 9.2944C41.5475 8.09017 40.6379 7.26812 39.5394 7.26812C39.2748 7.26397 39.0122 7.31372 38.7676 7.41432C38.5229 7.51491 38.3013 7.66427 38.1163 7.85327C37.9302 8.04327 37.7843 8.26876 37.6868 8.51632C37.5896 8.76391 37.5432 9.0285 37.5503 9.2944C37.5509 10.5374 38.4599 11.3397 39.5394 11.3397ZM30.2338 7.24917C31.0101 7.24917 31.6924 7.86115 31.6924 9.02592V13.786H34.3063V8.71795C34.3063 6.02359 32.9962 4.66694 30.8964 4.66694C30.2725 4.66694 29.0975 4.85647 28.2447 6.25261C27.752 5.22051 26.8052 4.68511 25.4058 4.68511C24.9199 4.68263 24.4439 4.82013 24.034 5.08115C23.6242 5.3422 23.2984 5.71571 23.0954 6.15705V4.86199H20.4609V13.7853H23.093V9.06383C23.093 7.70718 23.8321 7.24838 24.6272 7.24838C25.3853 7.24838 26.0661 7.84062 26.0857 8.96827V13.7853H28.7184V9.06383C28.7184 7.76639 29.4007 7.24996 30.2338 7.24996V7.24917Z" fill="#333333"/>
</g>
<defs>
<clipPath id="clip0_1_1957">
<rect width="100" height="18.1624" fill="white"/>
</clipPath>
</defs>
</svg>

<svg xmlns="http://www.w3.org/2000/svg" width="336.842" height="64" fill="none" viewBox="0 0 100 19"><g clip-path="url(#a)"><path fill="#F62B54" d="M2.069 14.355a2.077 2.077 0 0 1-1.81-1.05 2.008 2.008 0 0 1 .057-2.067l3.727-5.853a2.078 2.078 0 0 1 1.84-1 2.075 2.075 0 0 1 1.78 1.098 2.006 2.006 0 0 1-.111 2.064L3.827 13.4a2.077 2.077 0 0 1-1.758.955Z"/><path fill="#FC0" d="M8.464 14.355a2.07 2.07 0 0 1-1.807-1.048 2.002 2.002 0 0 1 .057-2.061l3.72-5.84a2.075 2.075 0 0 1 1.841-1.021c.758.017 1.445.44 1.793 1.104a2.002 2.002 0 0 1-.134 2.074l-3.72 5.84a2.074 2.074 0 0 1-1.75.952Z"/><path fill="#00CA72" d="M14.716 14.404c1.06 0 1.919-.84 1.919-1.878 0-1.038-.86-1.879-1.92-1.879-1.059 0-1.918.841-1.918 1.879 0 1.037.859 1.878 1.919 1.878Z"/><path fill="#333" d="M98.078 10.756c.58 0 .926.412.926 1.088v2.313h.787v-2.366c0-1.149-.54-1.814-1.557-1.814-.398 0-1.03.109-1.407.84a1.29 1.29 0 0 0-1.056-.797 1.82 1.82 0 0 0-.442-.026c-.324.026-.9.228-1.116.684v-.614h-.788v4.093h.788v-2.209c0-.859.562-1.192 1.125-1.192.528 0 .875.404.875 1.079v2.322h.783v-2.209c0-.683.41-1.2 1.082-1.192Zm-7.545 2.717c.36.008.707-.136.96-.396.252-.26.386-.615.373-.98 0-.824-.607-1.34-1.333-1.34-.728 0-1.333.516-1.333 1.34-.014.364.12.718.37.978.252.26.598.405.956.398h.007Zm0 .768c-1.152 0-2.113-.85-2.113-2.148 0-1.297.961-2.121 2.113-2.121 1.151 0 2.12.824 2.12 2.121 0 1.297-.975 2.152-2.126 2.152l.006-.004Zm-6.168-2.148-.007.005c0-1.298.986-2.121 2.145-2.126a2.08 2.08 0 0 1 1.558.657l-.597.508a1.343 1.343 0 0 0-.961-.385c-.727 0-1.358.517-1.358 1.341 0 .557.33 1.058.838 1.271a1.346 1.346 0 0 0 1.48-.298l.607.508a2.094 2.094 0 0 1-1.567.667c-1.15 0-2.138-.85-2.138-2.148Zm-2.521 1.278a.546.546 0 0 1 .538-.55.542.542 0 0 1 .539.55.545.545 0 0 1-.539.518.544.544 0 0 1-.538-.518Z"/><path fill="#333" fill-rule="evenodd" d="M83.995 4.861h-2.804l-1.965 5.067-1.955-5.067h-2.805l3.41 8.007-2.12 5.294h2.783l5.456-13.3ZM66.942 9.315c0 1.28 1.118 2.121 2.216 2.121 1.08 0 2.14-.783 2.14-2.122 0-1.338-1.06-2.122-2.14-2.122-1.098 0-2.216.842-2.216 2.122Zm4.356 4.471v-1.013c-.568.86-1.895 1.186-2.576 1.186-2.253 0-4.508-1.777-4.508-4.645 0-2.867 2.254-4.644 4.508-4.644.568 0 1.895.19 2.576 1.185v-.99h2.614v8.923l-2.614-.001v-.001Zm-7.828 0h-2.614v-1.109c-.436.822-1.495 1.3-2.594 1.3-2.274 0-4.282-1.815-4.282-4.627 0-2.864 2.008-4.681 4.282-4.681 1.097 0 2.16.458 2.594 1.28V0h2.614v13.786ZM60.8 9.294c0-1.337-.966-2.121-2.046-2.121-1.118 0-2.046.84-2.046 2.121 0 1.322.928 2.16 2.046 2.16 1.1 0 2.046-.879 2.046-2.16Zm-13.283-.23c0-1.357.702-1.816 1.63-1.816.89 0 1.534.593 1.534 1.777v4.76h2.633V8.453c0-2.542-1.251-3.784-3.24-3.784-1.042 0-2.084.592-2.557 1.49V4.861h-2.632v8.924h2.632V9.063Zm-7.978 4.874c-2.5 0-4.585-1.835-4.585-4.644 0-2.812 2.083-4.628 4.585-4.628 2.503 0 4.604 1.816 4.604 4.628 0 2.81-2.104 4.644-4.604 4.644Zm0-2.598c1.098 0 2.008-.804 2.008-2.046 0-1.204-.91-2.026-2.008-2.026a1.949 1.949 0 0 0-1.423.585 1.989 1.989 0 0 0-.566 1.441c0 1.243.91 2.046 1.99 2.046Zm-9.305-4.09c.776 0 1.458.611 1.458 1.776v4.76h2.614V8.718c0-2.694-1.31-4.051-3.41-4.051-.623 0-1.799.19-2.651 1.586-.493-1.032-1.44-1.568-2.84-1.568a2.53 2.53 0 0 0-2.31 1.472V4.862h-2.634v8.923h2.632V9.064c0-1.357.74-1.816 1.534-1.816.758 0 1.44.593 1.459 1.72v4.817h2.632V9.064c0-1.298.683-1.814 1.516-1.814Z" clip-rule="evenodd"/></g><defs><clipPath id="a"><path fill="#fff" d="M0 0h100v18.162H0z"/></clipPath></defs></svg>
